!!!Melodie: O Durchbrecher aller Bande
!!!Typ: Lied
**kern	**silbe	**silbe	**silbe	**silbe	**silbe	**silbe	**silbe	**silbe	**silbe	**silbe	**silbe	**silbe	**silbe	**silbe	**silbe	**silbe	**silbe	**silbe
*clefG2	*lang:DE	*lang:DE	*lang:DE	*lang:DE	*lang:DE	*lang:DE	*lang:DE	*lang:DE	*lang:DE	*lang:DE	*lang:DE	*lang:DE	*lang:DE	*lang:DE	*lang:DE	*lang:DE	*lang:DE	*lang:DE
*M4/4	*	*	*	*	*	*	*	*	*	*	*	*	*	*	*	*	*	*
4c	Geist	Schöp#	Rüs#	Kraft	Gib	die	Gib	wenn	Gib	sein	Gib	die	Gib	al#	Schenk’	wenn	Geist	Schöp#
4d	des	#fer	#te	und	uns	durch	uns	durch	uns	Ver#	uns	ver#	uns	#ler	uns	das	des	#fer
=	=	=	=	=	=	=	=	=	=	=	=	=	=	=	=	=	=	=
4e	Glau#	al#	du	Glau#	A#	al#	Mo#	fre#	Da#	#trau'n	E#	#führ#	der	Welt	gleich	Los,	Glau#	al#
4d	#bens,	#ler	mit	#bens#	#bra#	#le	#ses	#ches	#vids	in	#lias	#te,	A#	trotz	dem	das	#bens,	#ler
4e	Geist	Got#	dei#	#mut	#hams	Hin#	brünst’#	Ü#	Mut	Lei#	heil’#	blin#	#pos#	Spott	Ste#	uns	Geist	Got#
4f#	der	#tes#	#nen	zu	Ge#	#der#	#ges	#ber#	zu	#dens#	#ge	#de	#tel	und	#phan	be#	der	#tes#
=	=	=	=	=	=	=	=	=	=	=	=	=	=	=	=	=	=	=
4g	Stär#	#wer#	Ga#	ha#	#wis#	#nis#	Be#	#tre#	strei#	#zei#	Stren#	Men#	ho#	Dro#	Frie#	#schie#	Stär#	#wer#
4g	#ke,	#ke,	#ben	#ben,	#se,	#se,	#ten	#ten	#ten	#ten	#ge,	#ge	#hen,	#hen	#den	#den,	#ke,	#le,
4cc	des	Trä#	auch	Ei#	fes#	al#	um	un#	mit	auf	wenn	Tem#	un#	zu	mit#	in	des	Trä#
4cc	Ge#	#ger	uns	#fer	#te	#le	Er#	#ser	den	den	den	#pel	#ge#	ver#	#ten	den	Ge#	#ger
=	=	=	=	=	=	=	=	=	=	=	=	=	=	=	=	=	=	=
8bL	#hor#	al#	schwa#	für	Glau#	Zwei#	#bar#	Volk	Fein#	Her#	Göt#	und	#beug#	#kün#	in	schwer#	#hor#	al#
8aJ	|	|	|	|	|	|	|	|	|	|	|	|	|	|	|	|	|	|
4b	#sams	#ler	#che	des	#bens#	#fel	#mung	häuft	#den	#ren,	#zen	Al#	#te	#den	der	#sten	#sams	#ler
4a	und	Him#	Kin#	Her#	#zu#	sie#	und	Schuld	Is#	sei#	die#	#tä#	Zeu#	Chris#	Angst	Kampf	und	Him#
4a	der	#mels#	#der	#ren	#ver#	#gend	Ge#	auf	#ra#	#nen	#ser	#re	#gen#	#ti	der	uns	der	#mels#
=	=	=	=	=	=	=	=	=	=	=	=	=	=	=	=	=	=	=
2g	Zucht,	#frucht!	aus,	Haus;	#sicht,	bricht;	#duld,	Schuld;	#els,	Fels;	Zeit	weiht;	#mut,	Blut;	Welt,	stellt;	Zucht,	#frucht,
=:|	=	=	=	=	=	=	=	=	=	=	=	=	=	=	=	=	=	=
4cc	.	Geist,	.	ei#	.	die	.	lass	.	Fein#	.	dass	.	lass	.	in	.	Geist,
4g	.	der	.	#ne	.	nicht	.	uns	.	#des#	.	wir	.	die	.	dem	.	du
=	=	=	=	=	=	=	=	=	=	=	=	=	=	=	=	=	=	=
4a	.	einst	.	Welt	.	bloß	.	nicht	.	#lieb'	.	nie	.	Wahr#	.	ra#	.	Geist
4a	.	der	.	mit	.	dem	.	mit	.	und	.	vor	.	#heit	.	#sen#	.	der
4.g	.	heil#	.	ih#	.	Gna#	.	kal#	.	Freun#	.	ih#	.	uns	.	#den	.	heil’#
8f	.	#'gen	.	#ren	.	#den#	.	#tem	.	#des#	.	#nen	.	be#	.	Ge#	.	#gen
=	=	=	=	=	=	=	=	=	=	=	=	=	=	=	=	=	=	=
4e	.	Män#	.	Schät#	.	#bun#	.	Her#	.	#treu#	.	beu#	.	#ken#	.	#tüm#	.	Män#
4c	.	#ner,	.	#zen,	.	#de	.	#zen	.	#e,	.	#gen	.	#nen,	.	#mel	.	#ner,
4e	.	Kö#	.	Men#	.	trau#	.	un#	.	sei#	.	Haupt	.	die	.	schenk’	.	Kön’#
8eL	.	#n'ge	.	#schen#	.	#et	.	#ter	.	#nen	.	und	.	uns	.	uns	.	#ge
8fJ	.	|	.	|	.	|	.	|	.	|	.	|	.	|	.	|	.	|
=	=	=	=	=	=	=	=	=	=	=	=	=	=	=	=	=	=	=
4g	.	und	.	#gunst	.	froh	.	den	.	kö#	.	Knie,	.	froh	.	Glau#	.	und
4g	.	Pro#	.	und	.	und	.	Ver#	.	#nig#	.	auch	.	und	.	#bens#	.	Pro#
4f	.	#phe#	.	gu#	.	un#	.	#dorb'#	.	#li#	.	nicht	.	frei	.	#hei#	.	#phe#
4e	.	#ten#	.	#te	.	#be#	.	#nen	.	#chen	.	zum	.	ge#	.	#ter#	.	#ten#
=	=	=	=	=	=	=	=	=	=	=	=	=	=	=	=	=	=	=
2d	.	#schar,	.	Zeit,	.	#wegt,	.	steh’n,	.	Geist	.	Schein,	.	#macht;	.	#keit,	.	#schar
4g	.	der	.	Leib	.	auch	.	nein,	.	und	.	son#	.	gib,	.	Dess’n	.	der
4g	.	A#	.	und	.	des	.	mit	.	ein	.	#dern	.	dass	.	im	.	A#
=	=	=	=	=	=	=	=	=	=	=	=	=	=	=	=	=	=	=
4.f	.	#pos#	.	Le#	.	Lieb#	.	Mo#	.	Herz,	.	fest	.	wir’s	.	Ster#	.	#pos#
8e	.	#tel	.	#ben	.	#ste	.	#ses	.	das	.	als	.	nicht	.	#ben	.	#tel
4f	.	und	.	dran	.	je#	.	heil’#	.	vol#	.	dei#	.	las#	.	uns	.	und
4g	.	Be#	.	zu	.	#de	.	#gen	.	#ler	.	#ne	.	#sen	.	den	.	Be#
=	=	=	=	=	=	=	=	=	=	=	=	=	=	=	=	=	=	=
4e	.	#ken#	.	set#	.	Stun#	.	Schmer#	.	Reu#	.	Zeu#	.	kön#	.	Him#	.	#ken#
4c	.	#ner	.	#zen	.	#de	.	#zen	.	#e	.	#gen	.	#nen,	.	#mel	.	#ner
4d	.	Trieb	.	in	.	Gott	.	für	.	Got#	.	da#	.	ha#	.	zeig’	.	auch
4e	.	und	.	dem	.	zu	.	sie	.	#tes	.	#steh'n,	.	#be	.	uns	.	bei
4f	.	Kraft	.	gro#	.	Fü#	.	seuf#	.	Gna#	.	wenn	.	du	.	Je#	.	uns
8gL	.	und	.	#ßen,	.	#ßen	.	#zen,	.	#de	.	auch	.	die	.	#su	.	werd’
8fJ	.	|	.	|	.	|	.	|	.	|	.	|	.	|	.	|	.	|
4e	.	Zeu#	.	heil’#	.	nie#	.	wei#	.	sucht	.	ganz	.	Ü#	.	Herr#	.	of#
4d	.	#gnis	.	#gen	.	#der#	.	#nen,	.	und	.	al#	.	#ber#	.	#lich#	.	#fen#
=	=	=	=	=	=	=	=	=	=	=	=	=	=	=	=	=	=	=
2c	.	war!	.	Streit.	.	#legt.	.	fleh’n.	.	preist.	.	#lein.	.	#macht!	.	#keit!	.	#bar!
==	==	==	==	==	==	==	==	==	==	==	==	==	==	==	==	==	==	==
*-	*-	*-	*-	*-	*-	*-	*-	*-	*-	*-	*-	*-	*-	*-	*-	*-	*-	*-
